static/img/logo-browser-edge.svg

<svg width="64" height="64" viewBox="0 0 64 64" fill="none" xmlns="http://www.w3.org/2000/svg">
<path d="M57.7605 47.6294C56.9073 48.0756 56.0274 48.4688 55.1258 48.8068C52.256 49.8806 49.2159 50.4276 46.1518 50.4216C34.3232 50.4216 24.0194 42.285 24.0194 31.8437C24.0345 30.4433 24.4232 29.0722 25.1451 27.8722C25.8671 26.6721 26.8963 25.6864 28.1264 25.017C17.4277 25.4669 14.678 36.6157 14.678 43.1474C14.678 61.6153 31.6985 63.4876 35.3656 63.4876C37.3428 63.4876 40.325 62.9127 42.1148 62.3477L42.4422 62.2378C49.3296 59.8567 55.201 55.2019 59.0903 49.0392C59.2094 48.8516 59.2626 48.6295 59.2415 48.4083C59.2203 48.187 59.126 47.979 58.9735 47.8173C58.8209 47.6556 58.6189 47.5494 58.3992 47.5153C58.1795 47.4813 57.9548 47.5214 57.7605 47.6294Z" fill="url(#paint0_linear)"/>
<path opacity="0.35" d="M57.7605 47.6294C56.9073 48.0756 56.0274 48.4688 55.1258 48.8068C52.256 49.8806 49.2159 50.4276 46.1518 50.4216C34.3232 50.4216 24.0194 42.285 24.0194 31.8437C24.0345 30.4433 24.4232 29.0722 25.1451 27.8722C25.8671 26.6721 26.8963 25.6864 28.1264 25.017C17.4277 25.4669 14.678 36.6157 14.678 43.1474C14.678 61.6153 31.6985 63.4876 35.3656 63.4876C37.3428 63.4876 40.325 62.9127 42.1148 62.3477L42.4422 62.2378C49.3296 59.8567 55.201 55.2019 59.0903 49.0392C59.2094 48.8516 59.2626 48.6295 59.2415 48.4083C59.2203 48.187 59.126 47.979 58.9735 47.8173C58.8209 47.6556 58.6189 47.5494 58.3992 47.5153C58.1795 47.4813 57.9548 47.5214 57.7605 47.6294Z" fill="url(#paint1_radial)"/>
<path d="M26.4306 60.3482C24.201 58.9644 22.2688 57.1511 20.7462 55.0138C19.0109 52.6363 17.8168 49.9079 17.2475 47.02C16.6783 44.1321 16.7478 41.1546 17.4512 38.2964C18.1545 35.4382 19.4747 32.7685 21.3191 30.4745C23.1635 28.1806 25.4874 26.3179 28.1279 25.0172C28.9078 24.6498 30.2401 23.9848 32.0124 24.0173C33.2611 24.0264 34.4906 24.3245 35.6048 24.8883C36.7189 25.4521 37.6873 26.2663 38.4342 27.267C39.4436 28.6148 40.0002 30.2477 40.024 31.9314C40.024 31.8789 46.1383 12.0337 20.0263 12.0337C9.0526 12.0337 0.0286486 22.4475 0.0286486 31.584C-0.0146365 36.417 1.01947 41.199 3.0558 45.5824C6.38373 52.683 12.2034 58.3143 19.4096 61.4068C26.6159 64.4994 34.7069 64.8379 42.1462 62.358C39.5414 63.1793 36.7895 63.4258 34.0802 63.0806C31.3709 62.7353 28.7687 61.8065 26.4531 60.3582L26.4306 60.3482Z" fill="url(#paint2_linear)"/>
<path opacity="0.41" d="M26.4306 60.3482C24.201 58.9644 22.2688 57.1511 20.7462 55.0138C19.0109 52.6363 17.8168 49.9079 17.2475 47.02C16.6783 44.1321 16.7478 41.1546 17.4512 38.2964C18.1545 35.4382 19.4747 32.7685 21.3191 30.4745C23.1635 28.1806 25.4874 26.3179 28.1279 25.0172C28.9078 24.6498 30.2401 23.9848 32.0124 24.0173C33.2611 24.0264 34.4906 24.3245 35.6048 24.8883C36.7189 25.4521 37.6873 26.2663 38.4342 27.267C39.4436 28.6148 40.0002 30.2477 40.024 31.9314C40.024 31.8789 46.1383 12.0337 20.0263 12.0337C9.0526 12.0337 0.0286486 22.4475 0.0286486 31.584C-0.0146365 36.417 1.01947 41.199 3.0558 45.5824C6.38373 52.683 12.2034 58.3143 19.4096 61.4068C26.6159 64.4994 34.7069 64.8379 42.1462 62.358C39.5414 63.1793 36.7895 63.4258 34.0802 63.0806C31.3709 62.7353 28.7687 61.8065 26.4531 60.3582L26.4306 60.3482Z" fill="url(#paint3_radial)"/>
<path d="M38.0781 37.2108C37.8756 37.4733 37.2532 37.8357 37.2532 38.6256C37.2532 39.2781 37.6781 39.9055 38.433 40.4329C42.0276 42.9326 48.8043 42.6027 48.8218 42.6027C51.4853 42.5963 54.0983 41.8755 56.3884 40.5154C58.6987 39.1665 60.6161 37.2369 61.9504 34.9182C63.2847 32.5995 63.9896 29.9721 63.9951 27.2969C64.0601 21.695 61.9953 17.9705 61.1604 16.3207C55.8635 5.95933 44.4298 1.56643e-07 31.9963 1.56643e-07C23.5877 -0.000831299 15.5168 3.30837 9.5291 9.21189C3.5414 15.1154 0.118245 23.1387 0 31.5464C0.119986 22.4125 9.19893 15.0358 19.9977 15.0358C20.8726 15.0358 25.862 15.1208 30.4965 17.553C34.581 19.6978 36.7207 22.2875 38.2081 24.8547C39.7529 27.5219 40.0278 30.8915 40.0278 32.2338C40.0278 33.5762 39.3429 35.566 38.0781 37.2108Z" fill="url(#paint4_radial)"/>
<path d="M38.0781 37.2108C37.8756 37.4733 37.2532 37.8357 37.2532 38.6256C37.2532 39.2781 37.6781 39.9055 38.433 40.4329C42.0276 42.9326 48.8043 42.6027 48.8218 42.6027C51.4853 42.5963 54.0983 41.8755 56.3884 40.5154C58.6987 39.1665 60.6161 37.2369 61.9504 34.9182C63.2847 32.5995 63.9896 29.9721 63.9951 27.2969C64.0601 21.695 61.9953 17.9705 61.1604 16.3207C55.8635 5.95933 44.4298 1.56643e-07 31.9963 1.56643e-07C23.5877 -0.000831299 15.5168 3.30837 9.5291 9.21189C3.5414 15.1154 0.118245 23.1387 0 31.5464C0.119986 22.4125 9.19893 15.0358 19.9977 15.0358C20.8726 15.0358 25.862 15.1208 30.4965 17.553C34.581 19.6978 36.7207 22.2875 38.2081 24.8547C39.7529 27.5219 40.0278 30.8915 40.0278 32.2338C40.0278 33.5762 39.3429 35.566 38.0781 37.2108Z" fill="url(#paint5_radial)"/>
<defs>
<linearGradient id="paint0_linear" x1="14.678" y1="44.2573" x2="59.2578" y2="44.2573" gradientUnits="userSpaceOnUse">
<stop stop-color="#0C59A4"/>
<stop offset="1" stop-color="#114A8B"/>
</linearGradient>
<radialGradient id="paint1_radial" cx="0" cy="0" r="1" gradientUnits="userSpaceOnUse" gradientTransform="translate(39.3001 44.6086) scale(23.8422 22.6502)">
<stop offset="0.72" stop-opacity="0"/>
<stop offset="0.95" stop-opacity="0.53"/>
<stop offset="1"/>
</radialGradient>
<linearGradient id="paint2_linear" x1="38.1817" y1="24.9197" x2="10.3374" y2="55.2487" gradientUnits="userSpaceOnUse">
<stop stop-color="#1B9DE2"/>
<stop offset="0.16" stop-color="#1595DF"/>
<stop offset="0.67" stop-color="#0680D7"/>
<stop offset="1" stop-color="#0078D4"/>
</linearGradient>
<radialGradient id="paint3_radial" cx="0" cy="0" r="1" gradientUnits="userSpaceOnUse" gradientTransform="translate(17.6477 49.7465) rotate(-81.3844) scale(35.8525 28.9651)">
<stop offset="0.76" stop-opacity="0"/>
<stop offset="0.95" stop-opacity="0.5"/>
<stop offset="1"/>
</radialGradient>
<radialGradient id="paint4_radial" cx="0" cy="0" r="1" gradientUnits="userSpaceOnUse" gradientTransform="translate(6.46487 11.8429) rotate(92.2906) scale(50.6422 107.857)">
<stop stop-color="#35C1F1"/>
<stop offset="0.11" stop-color="#34C1ED"/>
<stop offset="0.23" stop-color="#2FC2DF"/>
<stop offset="0.31" stop-color="#2BC3D2"/>
<stop offset="0.67" stop-color="#36C752"/>
</radialGradient>
<radialGradient id="paint5_radial" cx="0" cy="0" r="1" gradientUnits="userSpaceOnUse" gradientTransform="translate(60.0111 19.3493) rotate(73.7398) scale(24.3322 19.7869)">
<stop stop-color="#66EB6E"/>
<stop offset="1" stop-color="#66EB6E" stop-opacity="0"/>
</radialGradient>
</defs>
</svg>

<svg width="64" height="64" fill="none" xmlns="http://www.w3.org/2000/svg"><path d="M57.76 47.63c-.853.446-1.733.839-2.634 1.177a25.465 25.465 0 0 1-8.974 1.615c-11.829 0-22.133-8.137-22.133-18.578a7.87 7.87 0 0 1 4.107-6.827c-10.698.45-13.448 11.599-13.448 18.13 0 18.468 17.02 20.34 20.688 20.34 1.977 0 4.959-.574 6.749-1.14l.327-.11A32.081 32.081 0 0 0 59.09 49.04a1 1 0 0 0-1.33-1.41z" fill="url(#a)"/><path opacity=".35" d="M57.76 47.63c-.853.446-1.733.839-2.634 1.177a25.465 25.465 0 0 1-8.974 1.615c-11.829 0-22.133-8.137-22.133-18.578a7.87 7.87 0 0 1 4.107-6.827c-10.698.45-13.448 11.599-13.448 18.13 0 18.468 17.02 20.34 20.688 20.34 1.977 0 4.959-.574 6.749-1.14l.327-.11A32.081 32.081 0 0 0 59.09 49.04a1 1 0 0 0-1.33-1.41z" fill="url(#b)"/><path d="M26.43 60.348a19.798 19.798 0 0 1-5.684-5.334 20.18 20.18 0 0 1 7.382-29.997c.78-.367 2.112-1.032 3.884-1a8.087 8.087 0 0 1 6.422 3.25 7.97 7.97 0 0 1 1.59 4.664c0-.052 6.114-19.897-19.998-19.897C9.053 12.034.03 22.448.03 31.584a32.534 32.534 0 0 0 3.027 13.998 31.996 31.996 0 0 0 39.09 16.776 18.885 18.885 0 0 1-15.693-2l-.022-.01z" fill="url(#c)"/><path opacity=".41" d="M26.43 60.348a19.798 19.798 0 0 1-5.684-5.334 20.18 20.18 0 0 1 7.382-29.997c.78-.367 2.112-1.032 3.884-1a8.087 8.087 0 0 1 6.422 3.25 7.97 7.97 0 0 1 1.59 4.664c0-.052 6.114-19.897-19.998-19.897C9.053 12.034.03 22.448.03 31.584a32.534 32.534 0 0 0 3.027 13.998 31.996 31.996 0 0 0 39.09 16.776 18.885 18.885 0 0 1-15.693-2l-.022-.01z" fill="url(#d)"/><path d="M38.078 37.21c-.202.263-.825.626-.825 1.416 0 .652.425 1.28 1.18 1.807 3.595 2.5 10.371 2.17 10.389 2.17a14.888 14.888 0 0 0 7.566-2.088 15.343 15.343 0 0 0 7.607-13.218c.065-5.602-2-9.326-2.835-10.976C55.864 5.959 44.43 0 31.996 0A31.996 31.996 0 0 0 0 31.546c.12-9.133 9.199-16.51 19.998-16.51.875 0 5.864.085 10.498 2.517 4.085 2.145 6.225 4.735 7.712 7.302 1.545 2.667 1.82 6.037 1.82 7.379 0 1.342-.685 3.332-1.95 4.977z" fill="url(#e)"/><path d="M38.078 37.21c-.202.263-.825.626-.825 1.416 0 .652.425 1.28 1.18 1.807 3.595 2.5 10.371 2.17 10.389 2.17a14.888 14.888 0 0 0 7.566-2.088 15.343 15.343 0 0 0 7.607-13.218c.065-5.602-2-9.326-2.835-10.976C55.864 5.959 44.43 0 31.996 0A31.996 31.996 0 0 0 0 31.546c.12-9.133 9.199-16.51 19.998-16.51.875 0 5.864.085 10.498 2.517 4.085 2.145 6.225 4.735 7.712 7.302 1.545 2.667 1.82 6.037 1.82 7.379 0 1.342-.685 3.332-1.95 4.977z" fill="url(#f)"/><defs><radialGradient id="b" cx="0" cy="0" r="1" gradientUnits="userSpaceOnUse" gradientTransform="matrix(23.8422 0 0 22.6502 39.3 44.609)"><stop offset=".72" stop-opacity="0"/><stop offset=".95" stop-opacity=".53"/><stop offset="1"/></radialGradient><radialGradient id="d" cx="0" cy="0" r="1" gradientUnits="userSpaceOnUse" gradientTransform="rotate(-81.384 37.75 14.612) scale(35.8525 28.9651)"><stop offset=".76" stop-opacity="0"/><stop offset=".95" stop-opacity=".5"/><stop offset="1"/></radialGradient><radialGradient id="e" cx="0" cy="0" r="1" gradientUnits="userSpaceOnUse" gradientTransform="rotate(92.291 -2.457 9.027) scale(50.6422 107.857)"><stop stop-color="#35C1F1"/><stop offset=".11" stop-color="#34C1ED"/><stop offset=".23" stop-color="#2FC2DF"/><stop offset=".31" stop-color="#2BC3D2"/><stop offset=".67" stop-color="#36C752"/></radialGradient><radialGradient id="f" cx="0" cy="0" r="1" gradientUnits="userSpaceOnUse" gradientTransform="matrix(6.81301 23.35891 -18.99542 5.54033 60.011 19.35)"><stop stop-color="#66EB6E"/><stop offset="1" stop-color="#66EB6E" stop-opacity="0"/></radialGradient><linearGradient id="a" x1="14.678" y1="44.257" x2="59.258" y2="44.257" gradientUnits="userSpaceOnUse"><stop stop-color="#0C59A4"/><stop offset="1" stop-color="#114A8B"/></linearGradient><linearGradient id="c" x1="38.182" y1="24.92" x2="10.337" y2="55.249" gradientUnits="userSpaceOnUse"><stop stop-color="#1B9DE2"/><stop offset=".16" stop-color="#1595DF"/><stop offset=".67" stop-color="#0680D7"/><stop offset="1" stop-color="#0078D4"/></linearGradient></defs></svg>
